X:20
L:1/4
M:4/4
K:Emin
"^*""Em" E2"D" D2 |"C" E2"B7" B,2 |"^*""Em" E E"D" F F |"G" G A/G/"B7" F2 |"^*""Em" B B"D" A A | 
"C" G A/G/"B7" F B, |"^*""Em" E2"D" D F |"^Last: E""Em" E4 |]

